!!!!SEGMENT: pl-sa--549-a-ix-29--020_anonim--sonatina.krn
!!!cenid: 18xx:474
!!!COM: Anonim
!!!COM-rismid: pe30004985
!!!CDT:
!!!CNT:
!!!OTL: Sonatina
!!!PDT:
!!!AGN: Secular; Sonatina
!!!SMS-siglum: PL-SA
!!!SMS-shelfmark: 549/A IX 29
!!!SMS-shelfwork: 020 W
!!!SMS-variant:
!!!SMS-altvar:
!!!NIFC-rismid: 1001068442
!!!URL-scan: http://bc.bdsandomierz.pl/dlibra/publication/1441/edition/1409/content
!!!ONB-nifc: Str. 14 (s. 3) – str. 15 (s. 3)
!!!key: e
**kern	**fing	**kern	**fing	**dynam
*part1	*part1	*part1	*part1	*part1
*staff2	*staff2	*staff1	*staff1	*
*ICklav	*	*ICklav	*	*
*Ipiano	*	*Ipiano	*	*
*I"	*	*I"	*	*
*I'keyb	*	*I'keyb	*	*
*clefF4	*	*clefG2	*	*
*k[f#]	*	*k[f#]	*	*
*e:	*	*e:	*	*
*M6/8	*	*M6/8	*	*
=1	=1	=1	=1	=1
!	!	!	!	!LO:DY:rj
8E\L	3	2.e/	3	p
8F#\	2	.	.	.
8G\J	1	.	.	.
8E\L	.	.	.	.
8F#\	.	.	.	.
8G\J	.	.	.	.
=2	=2	=2	=2	=2
8A\L	3	4.e/ 4.f#	3 4	.
8B\	2	.	.	.
8c\J	1	.	.	.
8A\L	.	4.e/ 4.f#	.	.
8B\	.	.	.	.
8c\J	.	.	.	.
=3	=3	=3	=3	=3
4.B\	2	8d#X/L 8f#	2 4	.
.	.	8e/ 8g	5 3	.
.	.	8f#/J 8a	4 5	.
4.B\	.	8d#/L 8f#	2 4	.
.	.	8e/ 8g	1 3	.
.	.	8f#/J 8a	2 4	.
=4	=4	=4	=4	=4
8E\L	5	16g/LL	3	.
.	.	16e/	1	.
8F#\	.	16a/	4	.
.	.	16e/	1	.
8G\J	.	16b/	5	.
.	.	16e/JJ	1	.
8E\L	.	16g/LL	2	.
.	.	16e/	1	.
8F#\	.	16a/	3	.
.	.	16e/	1	.
8G\J	.	16b/	4	.
.	.	16e/JJ	1	.
=5	=5	=5	=5	=5
4.A\	.	16cc/LL	5	.
.	.	16e/	1	.
.	.	16g#X/	2	.
.	.	16a/	3	.
.	.	16cc/	5	.
.	.	16a/JJ	3	.
16r	.	4f#/	2	.
16D\LL	4	.	.	.
16C#X\	5	.	.	.
16D\	4	.	.	.
16E\	3	16g#/LL	3	.
16F#\JJ	2	16a/JJ	4	.
=6	=6	=6	=6	=6
4.G\	1	16b/LL	5	.
.	.	16d/	1	.
.	.	16f#/	2	.
.	.	16g/	3	.
.	.	16b/	5	.
.	.	16g/JJ	3	.
16r	.	4e/	1	.
*Xtuplet	*	*	*	*
24C\LL	4	.	.	.
24BB\	5	.	.	.
24C\	4	.	.	.
16D\	3	.	.	.
16E\	3	16f#/LL	3	.
16F#\JJ	1	16g/JJ	4	.
=7	=7	=7	=7	=7
4.F#\	2	16a/LL	5	.
.	.	16c/	.	.
.	.	16e/	.	.
.	.	16f#/	.	.
.	.	16a/	.	.
.	.	16f#/JJ	.	.
!!LO:LB:g=original
=-	=-	=-	=-	=-
16r	.	4d#/	2	.
16BB\LL	.	.	.	.
16AA#X\	.	.	.	.
16BB\	.	.	.	.
16C#X\	.	16e/LL	3	.
16D#X\JJ	.	16f#/JJ	4	.
=8	=8	=8	=8	=8
4.E\	.	16g/LL	5	.
.	.	16B/	.	.
.	.	16g/	.	.
.	.	16f#/	.	.
.	.	16e/	.	.
.	.	16d/JJ	.	.
4F#\	.	16c/LL	1	.
.	.	16e/	4	.
.	.	16d/	3	.
.	.	16c/	2	.
8G\	.	16B/	1	.
.	.	16g/JJ	5	.
=9	=9	=9	=9	=9
4CC/	.	16f#/LL	4	.
.	.	16e/	.	.
.	.	16d/	.	.
.	.	16c/	3	.
!LO:N:vis=8.	!	!	!	!
8r	.	16B</	.	.
.	.	16A</JJ	.	.
4DD/	.	16G</LL	1	.
.	.	16F#</	3	.
.	.	16E</	.	.
.	.	16D</	.	.
8r	.	16E</	.	.
.	.	16F#</JJ	.	.
=10	=10	=10	=10	=10
16GG\LL	.	4G</	.	.
16AA\	.	.	.	.
16BB\	.	.	.	.
16C\	.	.	.	.
16D\	.	8g/ 8b	.	.
16E\JJ	3	.	.	.
16F#\LL	.	4g/ 4b	.	.
16G\	.	.	.	.
16A\	.	.	.	.
16B\	.	.	.	.
16c\	.	8g/ 8b	.	.
16d\JJ	.	.	.	.
=11	=11	=11	=11	=11
8d#X\L	2	4g/ 4b	.	.
8e\	1	.	.	.
8c\J	3	8a/ 8cc	.	.
4dn\	2	4g/ 4b	.	.
8d\	1	8f#/ 8a	2 4	.
=12	=12	=12	=12	=12
16G\LL	5	4g/ 4b	3 5	.
16A\	.	.	.	.
16B\	.	.	.	.
16c\	.	.	.	.
*	*	*	*below	*
16d\	.	8gg/ 8bb	1 3	.
16e\JJ	3	.	.	.
16f#>\LL	.	4gg/ 4bb	.	.
16g>\	.	.	.	.
*	*above	*	*	*
16a>\	4	.	.	.
16b>\	.	.	.	.
16cc>\	.	8gg/ 8bb	.	.
16dd>\JJ	.	.	.	.
=13	=13	=13	=13	=13
8dd#X>\L	2	4gg/ 4bb	.	.
8ee>\	1	.	.	.
8cc>\J	3	8aa/ 8ccc	.	.
!!LO:LB:g=original
=-	=-	=-	=-	=-
4ddn>\	.	4gg/ 4bb	.	.
8d>\ 8cc>	.	8ff#/ 8aa	.	.
=14	=14	=14	=14	=14
4g>\ 4b>	.	16gg/LL	.	.
.	.	16bb/JJ	.	.
.	.	16aa/LL	.	.
.	.	16gg/	.	.
8r>	.	16ff#/	.	.
.	.	16ee/JJ	.	.
*clefG2	*	*	*	*
*	*below	*	*	*
16a/LL	2	8dd#X\L	.	.
16b/	1	.	.	.
16g/	3	8ee\	.	.
16b/	1	.	.	.
16f#/	4	8ff#\J	.	.
16b/JJ	1	.	.	.
=15	=15	=15	=15	=15
16f#/LL	.	16gg\LL	.	.
16g/	.	16ff#\	.	.
16e/	.	16ffn\	.	.
16g/	.	16ee\	.	.
16d/	.	16dd\	.	.
16g/JJ	.	16cc\JJ	.	.
16f#/LL	.	8b\L	.	.
16g/	.	.	.	.
16e/	.	8cc\	.	.
16g/	.	.	.	.
16d/	.	8dd\J	.	.
16g/JJ	.	.	.	.
=16	=16	=16	=16	=16
*	*above	*	*	*
!	!	!LO:TX:b:i:t=co raz mocniey	!	!
!	!	!	!	!LO:HP:b:t=crescendo
4c/	5	16ee\LL	.	<
.	.	16ee\	.	.
.	.	16dd#X\	.	.
.	.	16ee\	.	.
*	*below	*	*	*
8e/ 8g	3 1	16dd#\	.	.
.	.	16ee\JJ	.	.
*	*above	*	*	*
4c/	5	16r	.	.
.	.	16ee\LL	.	.
.	.	16dd#\	.	.
.	.	16ee\	.	.
*	*below	*	*	*
8e/ 8g#X	3 1	16ffn\	.	.
.	.	16ee\JJ	.	.
=17	=17	=17	=17	=17
4c/	.	16r	.	.
.	.	16ee\LL	.	.
.	.	16dd#X\	.	.
.	.	16ee\	.	.
!	!	!LO:TX:a:t=f	!	!
8e/ 8a	3 1	16ff#X\	.	.
.	.	16ee\JJ	.	.
4c/	.	16r	.	.
.	.	16ee\LL	.	.
.	.	16dd#X\	.	.
.	.	16ee\	.	.
8e/ 8a#X	3 1	16gg\	.	.
.	.	16ee\JJ	.	.
=18	=18	=18	=18	=18
*	*	*	*above	*
!	!	!	!	!LO:DY:b=2:rj
4B/ 4f#	.	16dd#X\LL	2	f
.	.	16ff#\	4	.
.	.	16aa\	5	.
.	.	16gg\	4	.
8r	.	16ff#\	3	.
.	.	16ee\JJ	2	.
4r	.	16dd#/LL	4	.
.	.	16cc/	3	.
.	.	16b/	2	.
.	.	16a/	1	.
8r	.	16g/	3	.
.	.	16f#/JJ	2	.
!!LO:LB:g=original
=19	=19	=19	=19	=19
*clefF4	*	*	*	*
*	*	*	*	*^
!	!	!	!	!	!LO:DY:b=2
8E\L	.	2.e/	1	fp	fp
8F#\	.	.	.	.	.
8G\J	.	.	.	.	.
*rep	*	*	*	*	*
8E\L	.	.	.	.	.
8F#\	.	.	.	.	.
8G\J	.	.	.	.	.
*	*	*	*	*v	*v
*Xrep	*	*	*	*
=20	=20	=20	=20	=20
*	*	*^	*	*
8A\L	.	4.f#/	4.e\	1 3	.
8B\	.	.	.	.	.
8c\J	.	.	.	.	.
*rep	*	*	*	*	*
8A\L	.	4.f#/	4.e\	.	.
8B\	.	.	.	.	.
8c\J	.	.	.	.	.
*Xrep	*	*	*	*	*
*	*	*v	*v	*	*
=21	=21	=21	=21	=21
4.B\	.	8d#X/L 8f#	2 3	.
.	.	8e/ 8g	1 4	.
.	.	8f#/J 8a	3 5	.
4.B\	.	8d#/L 8f#	2 3	.
.	.	8e/ 8g	1 3	.
.	.	8f#/J 8a	2 4	.
=22	=22	=22	=22	=22
8E\L	.	16g/LL	3	.
.	.	16e/	.	.
8F#\	.	16a/	.	.
.	.	16e/	.	.
8G\J	.	16b/	.	.
.	.	16e/JJ	.	.
*rep	*	*	*	*
8E\L	.	16g/LL	2	.
.	.	16e/	.	.
8F#\	.	16a/	.	.
.	.	16e/	.	.
8G\J	.	16b/	.	.
.	.	16e/JJ	.	.
*Xrep	*	*	*	*
=23	=23	=23	=23	=23
4.A\	.	16cc\LL	5	.
.	.	16e\	.	.
.	.	16g#X\	.	.
.	.	16a\	.	.
.	.	16cc\	.	.
.	.	16a\JJ	.	.
16r	.	4f#/	2	.
16D\LL	.	.	.	.
16C#X\	.	.	.	.
16D\	.	.	.	.
16E\	.	16g#/LL	.	.
16F#\JJ	.	16a/JJ	.	.
=24	=24	=24	=24	=24
4.G\	.	16b/LL	.	.
.	.	16d/	.	.
.	.	16f#/	.	.
.	.	16g/	.	.
.	.	16b/	.	.
.	.	16g/JJ	.	.
16r	.	4e/	.	.
*	*above	*	*	*
16C\LL	4	.	.	.
16BB\	.	.	.	.
16C\	.	.	.	.
16D\	.	16f#/LL	.	.
16E\JJ	1	16g/JJ	.	.
=25	=25	=25	=25	=25
4.F#\	2	16a/LL	.	.
.	.	16c/	.	.
.	.	16e/	.	.
.	.	16f#/	.	.
.	.	16a/	.	.
.	.	16f#/JJ	.	.
!!LO:PB:g=original
=-	=-	=-	=-	=-
16r	.	4d#X/	.	.
16BB/LL	.	.	.	.
16AA#X/	.	.	.	.
16BB/	.	.	.	.
16C#X/	.	16e/LL	3	.
16D#X/JJ	.	16f#/JJ	4	.
=26	=26	=26	=26	=26
4E\	1	16g/LL	5	.
.	.	16B/	.	.
.	.	16g/	.	.
.	.	16e/	.	.
4F#\	.	16d#X/	.	.
.	.	16f#/JJ	.	.
.	.	16e/LL	.	.
.	.	16d#/	.	.
!LO:TX:a:t=P:problem:mixed beam	!	!	!	!
12G\L	.	16f#/	.	.
.	.	16e/	.	.
12GGG/	.	.	.	.
.	.	16B/	.	.
12GGG#X/J	.	.	.	.
.	.	16dn/JJ	4	.
=27	=27	=27	=27	=27
4AAA/	.	16c/LL	.	.
.	.	16B</	.	.
.	.	16A</	.	.
.	.	16G</	.	.
8r	.	16F#</	.	.
.	.	16E</JJ	.	.
4BBB/	.	16D#X</LL	.	.
.	.	16C</	.	.
.	.	16AA</	.	.
.	.	16GG</	.	.
8r	.	16FF#</	.	.
.	.	16EE</JJ	.	.
=28	=28	=28	=28	=28
16EE/LL	1	8r	.	.
16FF#/	4	.	.	.
16GG/	.	8r	.	.
16AA/	.	.	.	.
16BB/	.	8e/ 8g	1 3	.
16C#X/JJ	.	.	.	.
16D#X\LL	3	4e/ 4g	.	.
16E\	.	.	.	.
16F#\	4	.	.	.
16G\	.	.	.	.
16A\	.	8e/ 8g	.	.
16B\JJ	.	.	.	.
=29	=29	=29	=29	=29
4c\	2	4e/ 4g	.	.
8A\	4	8f#/ 8a	.	.
4B\	3	4e/ 4g	.	.
8B\	1	8d#X/ 8f#X	2 4	.
=30	=30	=30	=30	=30
16E\LL	5	4e/ 4g	3 5	.
16F#\	.	.	.	.
16G\	.	.	.	.
16A\	.	.	.	.
16B\	.	8ee/ 8gg	1 3	.
16c#X\JJ	.	.	.	.
16d#X>\LL	.	4ee/ 4gg	.	.
16e>\	.	.	.	.
16f#>\	.	.	.	.
16g>\	.	.	.	.
16a>\	.	8ee/ 8gg	.	.
16b>\JJ	.	.	.	.
=31	=31	=31	=31	=31
4cc>\	.	4ee/ 4gg	.	.
8a>\	.	8ff#/ 8aa	.	.
!!LO:LB:g=original
=-	=-	=-	=-	=-
4b>\	.	4ee/ 4gg	.	.
8B>\ 8a>	5 1	8dd#X/ 8ff#	2 4	.
=32	=32	=32	=32	=32
4e>\ 4g>	.	16ee/LL	.	.
.	.	16b/	.	.
.	.	16gg/	.	.
.	.	16b/	.	.
8r>	.	16ff#/	.	.
.	.	16b/JJ	.	.
8B>\L 8f#> 8a>	5 2 1	16ee/LL	.	.
.	.	16b/	.	.
8B>\ 8f#> 8a>	.	16ff#/	.	.
.	.	16b/	.	.
8B>\J 8f#> 8a>	.	16dd#X/	.	.
.	.	16b/JJ	.	.
*clefG2	*	*	*	*
=33	=33	=33	=33	=33
4e/ 4g	.	16ee\LL	3	.
.	.	16b\	.	.
.	.	16gg\	.	.
.	.	16a\	.	.
8r	.	16ff#\	.	.
.	.	16b\JJ	.	.
8B/L 8f# 8a	.	16ee\LL	.	.
.	.	16b\	.	.
8B/ 8f# 8a	.	16ff#\	.	.
.	.	16b\	.	.
8B/J 8f# 8a	.	16dd#X\	.	.
.	.	16b\JJ	.	.
=34	=34	=34	=34	=34
4e/ 4g	.	16ee\LL	2	.
.	.	16gg\	4	.
.	.	16bb\	5	.
.	.	16gg\	4	.
8r	.	16ee\	2	.
.	.	16b\JJ	1	.
4r	.	16g/LL	2	.
.	.	16b/	3	.
.	.	16ee/	5	.
.	.	16b/	3	.
8r	.	16g/	2	.
.	.	16b/JJ	3	.
=35	=35	=35	=35	=35
!	!	!	!	!LO:DY:b=2:rj
[2.c/	.	16e/LL	1	f
.	.	16g/	4	.
.	.	16b/	5	.
.	.	16g/	4	.
.	.	16e/	2	.
!	!	!LO:TX:b:t=h	!	!
!	!	!LO:TX:b:i:t=Synkopa	!	!
.	.	16B/JJ	1	.
.	.	16G</LL	2	.
.	.	16B</	3	.
.	.	16e/	5	.
.	.	16B</	3	.
.	.	16G</	2	.
.	.	16B</JJ	3	.
=36	=36	=36	=36	=36
*	*	*	*below	*
4c/]	.	16cc/LL	1	.
.	.	16ee/	4	.
.	.	16gg/	5	.
.	.	16ee/	4	.
8r	.	16cc/	2	.
.	.	16g/JJ	1	.
4r	.	16e/LL	1	.
.	.	16g/	3	.
.	.	16cc/	5	.
.	.	16g/	3	.
8r	.	16e/	2	.
.	.	16g/JJ	3	.
*clefF4	*	*	*	*
!!LO:LB:g=original
=37	=37	=37	=37	=37
16EE\LL	1	4.E</	.	.
16GG\	4	.	.	.
16BB\	2	.	.	.
16E\	1	.	.	.
16BB\	2	.	.	.
16GG\JJ	4	.	.	.
*	*	*	*above	*
16EE\LL	.	4e/ 4g 4b 4ee	1 2 3 5	.
16GG\	.	.	.	.
16BB\	.	.	.	.
16E\	.	.	.	.
16BB\	.	8r	.	.
16GG\JJ	.	.	.	.
=38	=38	=38	=38	=38
2.EE;>/	.	2.e;>/ 2.g 2.b 2.ee	.	.
==	==	==	==	==
*-	*-	*-	*-	*-
!!!system-decoration: {(s1,s2)}
!!!RDF**kern: < = below
!!!RDF**kern: > = above
!!!AIN: 1 piano
!!!ENC: Tomasz Grochalski
!!!END: 2020-06-17
!!!ENC: Marta Chmielewska
!!!END: 2022-01-04
